X: 1
T: Joe Ryan's
M: 4/4
L: 1/8
R: barndance
K: Gmaj
|:D2|G2 BG D2 ED|B,CDB, G,2 AB|c2 B2  A2 G2|E4  EcBA|
G2 BG D2 ED|B,CDB, G,2 AB|cBce d2 F2|G4 z2 :|
d2|g2 f2 e2 d2|e2 d2 B2 zB|c2 B2  A2 G2|E4  EcBA|
[1 G2 BG D2 ED|B,CDB, G,2 AB|cBce d2 F2|G4 z2 :|
[2 GFGA G2 B,C|DCB,A, G,2 AB|cBce d2 F2|G4 z2 ||
